X:1
T:I Love to Think of Jesus
T:Adam Geibel
T:I Love to Think of Jesus
T:Public Domain
T:Public Domain
T:Public Domain
C:Adam Geibel
Z:Public Domain
%%score ( 1 2 ) ( 3 4 )
L:1/8
M:4/4
K:Ab
V:1 treble 
V:2 treble 
V:3 bass 
V:4 bass 
V:1
 E | [CE][CF][CG][CA] [CB][CA][E=Ad][EAc] | (DD)([DF][DF]) ([DF][DF][DF])[DFB] | %3
w: 1.~I|to think of Je- sus, who else could|it * be, * Who * * could|
w: 2.~I|to think that He has giv- en me|a * part * In * * par-|
w: 3.~I|to think of Je- sus when I am|dis- * tressed, * To * * think|
w: 4.~I|to think of Him when tears of sor-|row * fall, * To * * know|
 [DGc][DGB][C^F=A][DGB] [EGc][DGB][B,DG][B,DE] | ([A,C][A,C])([A,C][A,C]) ([A,C][A,C][A,C])[A,CE] | %5
w: Heav’n to save a soul like me? To|think * of * Him * * does|
w: pur- chased with a brok- en heart; And|oft * my * eyes * * are|
w: prom- ise brings a bliss- ful rest; In|sor- * row, * pain * * and|
w: suf- fered and He knows it all; It|gives * me * strength * * to|
 [CE][CF][CG][CA] [CB][CA][E=Ad][EAc] | ([EG][EG])([EG][EG]) ([GB][GB][GB])[B,EG] | %7
w: the debt I owe, I’ll do my best|my * gra- * ti- * * tude|
w: as I re- call What He has done|for * me, * and * * for|
w: is near I know, It is no won-|der * that * I * * love|
w: den nor com- plain, I nev- er yet|have * called * to * * Him|
 [=DAB][DAc][FA=d][FAc] [DA][DF][^C=E][DF] | ([DG][DG][DF][DG] [EGe]3)"^Refrain" || [Ec] | %10
w: |||
w: love to think of Je- sus and His|love * * * *|My|
w: |||
w: |||
 EFFG [Gc][Ac][Gc][Fc] | [Ad]2 [Gd-]2 [Gd]3 [Ed] | EFFG [Gd][Bd][Gd][Fd] | %13
w: |||
w: soul is lost in won- der that such|could~be; I’ve known the|love of mo- ther, Of sis- ter, friend|
w: |||
w: |||
 [Fd]2 [Ec-]2 [Ec]3 [Ec] | [ce][ce][Bd][=Ac] [ce] [Bd]2 [Bd] | [Bd][Bd][Ac][GB] [Bd] [Ac]2 A | %16
w: |||
w: bro- ther, Like Je-|sus there’s no o- ther, He’s more|than all to me. * * *|
w: |||
w: |||
 [=DA][DA][DG][DA] [Ee] [Ac]2 E | [=DF][Dc] [_DB]>[CA] [CA]3 |] %18
w: ||
w: ||
w: ||
w: ||
V:2
 E | x8 | F2 c2 B3 x | x8 | F2 _F2 E3 x | x8 | c2 B2 e3 x | x8 | B4 x3 || x | c4 x4 | x8 | d4 x4 | %13
w: love||come down from||not re- pay||to show. *|||||||
w: love||don that He||filled with tears||us all. I||for~me;||love||and|
w: love||up- on His||an- guish He||Him so. *|||||||
w: love||that He has||bear my bur-||in vain. *|||||||
 x8 | x8 | x7 A | x7 E | x7 |] %18
w: |||||
w: |||||
w: |||||
w: |||||
V:3
 E, | E,F,G,A, B,A,DC | F,2 C2 B,3 B, | CB,=A,B, CB,G,E, | F,2 _F,2 E,3 E, | E,F,G,A, B,A,DC | %6
 C2 B,2 E3 G, | B,C=DC B,F,=E,F, | ([E,,E,][E,B,][E,A,][E,B,] [E,B,D]3) || z | %10
 A,,2 [E,A,C]2 [E,A,C]2 [E,A,C]2 | B,,2 ([E,B,D]2 [E,B,D]2) [E,B,D]2 | %12
 E,,2 [E,B,D]2 [E,B,D]2 [E,B,D]2 | A,,2 [E,A,C]2 [E,A,C]2 [E,A,C]2 | F,,2 [F,=A,E]2 B,,2 [F,B,D]2 | %15
 E,,2 [E,G,D]2 A,,2 [E,A,C]A, | [_F,=B,][F,B,][F,B,][F,B,] [E,C] [E,E]2 [C,A,] | %17
 [B,,A,][B,,A,] [E,G,]>[A,,E,] [A,,E,]3 |] %18
V:4
 E, | A,,6 F,2 | B,,8 | E,4- E,4 | A,,8 | A,,6 F,2 | B,,8 | B,,8 | x7 || x | x8 | x8 | x8 | x8 | %14
 x8 | x7 A, | x8 | x7 |] %18

